!!!COM: Palestrina, Giovanni Perluigi da
!!!OPR: Missa Pro Defunctis
!!!OTL: Agnus I
**kern	**kern	**kern	**kern	**kern
*Ibass	*Itenor	*Itenor	*Icalto	*Icant
!Bassus	!Tenor 2	!Tenor 1	!Altus	!Cantus
*clefF4	*clefGv2	*clefGv2	*clefG2	*clefG2
*k[]	*k[]	*k[]	*k[]	*k[]
*?:X	*?:X	*?:X	*?:X	*?:X
*M4/2	*M4/2	*M4/2	*M4/2	*M4/2
=1	=1	=1	=1	=1
0G	0r	0r	0r	0r
=2	=2	=2	=2	=2
1F#	0r	0r	0d	0r
1G	.	.	.	.
=3	=3	=3	=3	=3
2.A	0r	0r	1c#	0r
4G	.	.	.	.
2F#	.	.	1d	.
[2G	.	.	.	.
=4	=4	=4	=4	=4
4G]	0r	0r	2e	0g
4F	.	.	.	.
4E	.	.	1d	.
4D	.	.	.	.
1E	.	.	.	.
.	.	.	2c#	.
=5	=5	=5	=5	=5
1D	1r	0r	1d	1f#
[1C	[1c	.	[1e	1g
=6	=6	=6	=6	=6
2C]	1c]	0r	2e]	0g
4BB	.	.	4d	.
4AA	.	.	4c	.
2GG	1B	.	1d	.
2G	.	.	.	.
=7	=7	=7	=7	=7
2.F	1c	0r	0f	0a
4E	.	.	.	.
1D	2.d	.	.	.
.	4c	.	.	.
=8	=8	=8	=8	=8
1E	2B	1r	1e	1g
.	2.c	.	.	.
1C	.	[1c	[1e	2a
.	4B	.	.	.
.	4A	.	.	[2g
.	4G	.	.	.
=9	=9	=9	=9	=9
1r	1A	1c]	2e]	2g]
.	.	.	4d	2f#
.	.	.	4c	.
2r	1G	1B	2.d	1g
2G	.	.	.	.
.	.	.	8c	.
.	.	.	8B	.
=10	=10	=10	=10	=10
2F	0r	1c	2A	2r
2E	.	.	2G	1g
1D	.	2.d	1A	.
.	.	.	.	2f#
.	.	4c	.	.
=11	=11	=11	=11	=11
2E	0r	2B	1.e	2g
2C	.	2.c	.	2.a
1E	.	.	.	.
.	.	4B	.	4g
.	.	4A	2c	[2g
.	.	4G	.	.
=12	=12	=12	=12	=12
0D	2r	0A	1.d	2g]
.	2A	.	.	4f
.	.	.	.	4e
.	2D	.	.	1f#
.	2d	.	2A	.
=13	=13	=13	=13	=13
0GG	4d	0G	2.B	0g
.	4c	.	.	.
.	4B	.	.	.
.	4A	.	4c	.
.	2B	.	1d	.
.	[2G	.	.	.
=14	=14	=14	=14	=14
1D	4G]	1A	2r	0r
.	4F#	.	.	.
.	2F#	.	2d	.
1GG	[1G	1B-	1d	.
=15	=15	=15	=15	=15
1D	2G]	1A	1.d	0r
.	2F	.	.	.
1AA	1E	1A	.	.
.	.	.	2c#	.
=16	=16	=16	=16	=16
2D	2D	2F#	2d	0r
2GG	2D	2G	2B	.
1AA	1A	1E	1c#	.
=17	=17	=17	=17	=17
1D	2A	1F#	1d	0a
.	2.d	.	.	.
1r	.	1A	1e	.
.	4c#	.	.	.
.	2c#	.	.	.
=18	=18	=18	=18	=18
0r	1d	1D	1f	1a
.	1c	1A	1e	[1a
=19	=19	=19	=19	=19
0r	1B	1E	1e	2a]
.	.	.	.	2g#
.	2A	2A	2c#	2a
.	2A	2D	2d	2f#
=20	=20	=20	=20	=20
0r	1e	1E	1B	1g#
.	2c#	1A	1A	[1a
.	[2e	.	.	.
=21	=21	=21	=21	=21
1A	2e]	1c#	1e	1a]
.	1A	.	.	.
1D	.	1d	1f	2r
.	[2d	.	.	2a
=22	=22	=22	=22	=22
1A	2d]	2e	1e	1a
.	2c	2A	.	.
1E	2B	2A	1e	1b
.	2e	2G#	.	.
=23	=23	=23	=23	=23
2A	2c	2A	2e	2cc
2D	2d	2A	2f	1a
1E	1B	1r	1e	.
.	.	.	.	2g#
=24	=24	=24	=24	=24
1AA	0A	2r	1e	0a
.	.	1c	.	.
[1F	.	.	[1c	.
.	.	2B-	.	.
=25	=25	=25	=25	=25
2F]	2r	2A	1c]	0r
2E	1c	2G	.	.
1D	.	1F	1d	.
.	2B-	.	.	.
=26	=26	=26	=26	=26
1C	2A	2r	1e	0r
.	2G	2.c	.	.
[1F	2.A	.	[1c	.
.	.	4B-	.	.
.	.	[2A	.	.
.	4G	.	.	.
=27	=27	=27	=27	=27
2F]	2F	2A]	1c]	0r
2E	2G	1G	.	.
1D	1A	.	2.d	.
.	.	2F#	.	.
.	.	.	4d	.
=28	=28	=28	=28	=28
1GG	1B	1G	1d	[0g
1r	2r	2.E	[1e	.
.	[2c	.	.	.
.	.	4F	.	.
=29	=29	=29	=29	=29
2r	2c]	1G	2e]	1g]
1G	2B	.	2d	.
.	1A	1D	[1d	1a
2F#	.	.	.	.
=30	=30	=30	=30	=30
1G	1G	2r	1d]	1b
.	.	1G	.	.
1C	2r	.	1e	1a
.	2c	2E	.	.
=31	=31	=31	=31	=31
2.AA	2c	2F	2r	1a
.	1c	2.E	1e	.
4BB	.	.	.	.
2C	.	.	.	[1g
.	.	4F	.	.
2GG	2B	2G	4d	.
.	.	.	4c	.
=32	=32	=32	=32	=32
1D	1.A	4A	1d	2g]
.	.	4D	.	.
.	.	1d	.	4f#
.	.	.	.	4e
1D	.	.	1d	2f#
.	2A	2A	.	2f#
=33	=33	=33	=33	=33
[0GG	[0G	[0B	[0d	[0g
=34	=34	=34	=34	=34
0GG]	0G]	0B]	0d]	0g]
==	==	==	==	==
*-	*-	*-	*-	*-
!!!CDT: 1525/^1526/-1594/2/2
!!!OCY: Italia
!!!AGN: Mass (Paraphrase)
!!!AST: renaissance, vocal
!!!ASW: Gregorian Mass
!!!PWK: Masses, Book 1
!!!RNB: Cadence finals: F,G,D
!!!YOR: Le Opere Complete, v. 1, p. 164
!!!YOO: Rome, Italy: Fratelli Scalera
!!!END: 1992//
!!!EED: John Miller
!!!YEC: Copyright 2000, John Miller
!!!YEN: United States of America
!!!YEM: Rights to all derivative electronic formats reserved.
!!!YEM: Refer to licensing agreement for further details.
!!!YEM: This file must be accompanied by the licensing agreement.
!!!YEM: A copy of the licensing agreement may be found at http://www.music-cog.ohio-state.edu/HumdrumDatabases/Palestrina/license.txt
!!!EMD: converted to Humdrum by Bret Aarden
